X:72
T:no name
R:slide
Z:id:hn-slide-72
M:6/8
L:1/8
K:D
A2d dcd | B2A F2E | DEF ABF | A2F E3 |
A2d dcd | B2A F2A | Bcd efe |1 d3 dcB :|2 d3 d2g ||
|: f2d d2g | g2e ede | f2d dcd | e2A A2g |
f2d d2g | g2e ede | f2d efe |1 d3 d2g :|2 d3 dcB ||

